icons/respirator_fill.svg

<svg width="48" height="48" viewBox="0 0 48 48" fill="none" xmlns="http://www.w3.org/2000/svg">
<path fill-rule="evenodd" clip-rule="evenodd" d="M17 19C17 15.134 20.134 12 24 12C27.866 12 31 15.134 31 19V23.73C30.6559 22.9649 30.2859 22.207 29.8937 21.4846C29.1369 20.0904 28.2721 18.7806 27.319 17.806C26.3823 16.8483 25.2287 16.082 23.9027 16.082C22.5768 16.082 21.4232 16.8483 20.4865 17.806C19.5334 18.7806 18.6686 20.0904 17.9118 21.4846C17.5925 22.0728 17.2879 22.6845 17 23.3044V19ZM33 15C33 10.0294 28.9706 6 24 6C19.0294 6 15 10.0294 15 15V28.4016C14.7231 28.1376 14.4437 27.8998 14.1651 27.6913C13.5922 27.2627 12.9851 26.9301 12.3781 26.7718C11.7657 26.612 11.0888 26.6164 10.4831 26.9661L7.26332 28.8251C6.65769 29.1747 6.31537 29.7588 6.14754 30.369C5.98119 30.9739 5.96567 31.6659 6.0504 32.3763C6.22028 33.8007 6.8156 35.4854 7.76143 37.1236C8.70726 38.7619 9.86862 40.1198 11.0172 40.9791C11.5901 41.4077 12.1971 41.7402 12.8041 41.8986C13.4166 42.0584 14.0935 42.054 14.6992 41.7043L14.7066 41.7L17.919 39.8453C18.5246 39.4957 18.8669 38.9116 19.0347 38.3014C19.0964 38.0772 19.1373 37.8411 19.1601 37.5965C19.1914 37.5994 19.2232 37.601 19.2553 37.601H28.5501C28.5823 37.601 28.6141 37.5994 28.6455 37.5965C28.6683 37.841 28.7092 38.077 28.7708 38.3011C28.9387 38.9114 29.281 39.4954 29.8866 39.8451L33.1064 41.704C33.712 42.0536 34.3892 42.0575 35.0016 41.8977C35.6086 41.7394 36.2157 41.4068 36.7885 40.9782C37.9371 40.1189 39.0985 38.761 40.0443 37.1228C40.9902 35.4845 41.5855 33.7998 41.7554 32.3754C41.8401 31.665 41.8246 30.973 41.6582 30.3682C41.4904 29.7579 41.1481 29.1739 40.5424 28.8242C40.5274 28.8155 40.5123 28.807 40.4972 28.7988L37.3225 26.9658C36.7168 26.6162 36.0399 26.6117 35.4274 26.7715C34.8204 26.9299 34.2134 27.2625 33.6405 27.691C33.427 27.8508 33.213 28.0278 33 28.2207V15ZM10.9453 29.5503C10.7614 29.4127 10.5739 29.285 10.3841 29.1698L11.4126 28.576C11.4738 28.5407 11.6142 28.4937 11.9088 28.5705C12.2089 28.6488 12.5986 28.841 13.0515 29.1798C13.9543 29.8552 14.9601 31.0025 15.8109 32.4762C16.6618 33.95 17.1525 35.3947 17.286 36.5142C17.353 37.0758 17.3246 37.5094 17.2423 37.8084C17.1616 38.102 17.0507 38.2001 16.9895 38.2354L15.961 38.8292C15.9561 38.6072 15.9393 38.3811 15.9121 38.1531C15.7422 36.7287 15.1469 35.044 14.201 33.4057C13.2552 31.7675 12.0939 30.4096 10.9453 29.5503ZM37.421 29.1693L36.393 28.5758C36.3318 28.5404 36.1914 28.4934 35.8967 28.5703C35.5967 28.6486 35.207 28.8407 34.7541 29.1795C33.8513 29.855 32.8455 31.0023 31.9946 32.476C31.1438 33.9497 30.6531 35.3944 30.5196 36.514C30.4526 37.0756 30.481 37.5092 30.5632 37.8082C30.644 38.1018 30.7549 38.1998 30.8161 38.2352L31.8447 38.8291C31.8496 38.6069 31.8665 38.3805 31.8937 38.1522C32.0636 36.7278 32.6589 35.0431 33.6047 33.4049C34.5505 31.7666 35.7119 30.4087 36.8605 29.5494C37.0442 29.412 37.2314 29.2844 37.421 29.1693ZM24 10C26.667 10 29.063 11.16 30.711 13.003C29.8514 10.11 27.1721 8 24 8C20.8279 8 18.1486 10.11 17.289 13.003C18.937 11.16 21.333 10 24 10ZM24.8323 28.2357C24.8323 28.749 24.4161 29.1652 23.9028 29.1652C23.3895 29.1652 22.9733 28.749 22.9733 28.2357C22.9733 27.7224 23.3895 27.3062 23.9028 27.3062C24.4161 27.3062 24.8323 27.7224 24.8323 28.2357ZM24.8323 31.9537C24.8323 32.467 24.4161 32.8832 23.9028 32.8832C23.3895 32.8832 22.9733 32.467 22.9733 31.9537C22.9733 31.4403 23.3895 31.0242 23.9028 31.0242C24.4161 31.0242 24.8323 31.4403 24.8323 31.9537ZM25.7618 31.0242C26.2751 31.0242 26.6913 30.608 26.6913 30.0947C26.6913 29.5814 26.2751 29.1652 25.7618 29.1652C25.2484 29.1652 24.8323 29.5814 24.8323 30.0947C24.8323 30.608 25.2484 31.0242 25.7618 31.0242ZM22.9733 30.0947C22.9733 30.608 22.5571 31.0242 22.0438 31.0242C21.5305 31.0242 21.1143 30.608 21.1143 30.0947C21.1143 29.5814 21.5305 29.1652 22.0438 29.1652C22.5571 29.1652 22.9733 29.5814 22.9733 30.0947ZM23.9027 18.8705C23.1926 18.8705 22.606 19.2295 22.1625 19.6436C21.7149 20.0617 21.3194 20.6208 20.9687 21.2313C20.6936 21.7102 20.8588 22.3215 21.3377 22.5966C21.8166 22.8717 22.4278 22.7064 22.7029 22.2275C23.004 21.7034 23.2838 21.333 23.5277 21.1053C23.7757 20.8736 23.8967 20.8705 23.9027 20.8705C23.9088 20.8705 24.0297 20.8736 24.2778 21.1053C24.5216 21.333 24.8014 21.7034 25.1025 22.2275C25.3776 22.7064 25.9889 22.8717 26.4678 22.5966C26.9467 22.3215 27.1119 21.7102 26.8368 21.2313C26.4861 20.6208 26.0905 20.0617 25.6429 19.6436C25.1995 19.2295 24.6128 18.8705 23.9027 18.8705ZM28.5502 30.0946C28.5502 32.6613 26.4695 34.742 23.9028 34.742C21.3361 34.742 19.2554 32.6613 19.2554 30.0946C19.2554 27.5279 21.3361 25.4472 23.9028 25.4472C26.4695 25.4472 28.5502 27.5279 28.5502 30.0946Z" fill="black"/>
</svg>

<svg
  xmlns="http://www.w3.org/2000/svg"
  width="24"
  height="24"
  viewBox="0 0 24 24"
  fill="none"
  stroke="currentColor"
  stroke-width="2"
  stroke-linecap="round"
  stroke-linejoin="round"
>
  <path
    fill-rule="evenodd"
    d="M17 19a7 7 0 1 1 14 0v4.73a34 34 0 0 0-1.106-2.245c-.757-1.395-1.622-2.704-2.575-3.679-.937-.958-2.09-1.724-3.416-1.724s-2.48.766-3.416 1.724c-.954.975-1.818 2.284-2.575 3.679-.32.588-.624 1.2-.912 1.82zm16-4a9 9 0 1 0-18 0v13.402a9 9 0 0 0-.835-.71c-.573-.43-1.18-.762-1.787-.92-.612-.16-1.29-.156-1.895.194l-3.22 1.86c-.605.349-.948.933-1.115 1.543-.167.605-.182 1.297-.098 2.007.17 1.425.766 3.11 1.711 4.748s2.108 2.996 3.256 3.855c.573.429 1.18.761 1.787.92.613.16 1.29.155 1.895-.195l.008-.004 3.212-1.855c.606-.35.948-.933 1.116-1.544q.091-.337.125-.705.047.005.095.005h9.295q.048 0 .095-.005.034.368.126.705c.168.61.51 1.194 1.116 1.544l3.22 1.859c.605.35 1.282.353 1.895.194.607-.159 1.214-.491 1.786-.92 1.15-.86 2.31-2.217 3.256-3.855.946-1.639 1.542-3.323 1.711-4.748.085-.71.07-1.402-.097-2.007-.168-.61-.51-1.194-1.116-1.544l-.045-.025-3.175-1.833c-.605-.35-1.282-.354-1.895-.195-.607.159-1.214.491-1.786.92q-.321.24-.641.53zM10.945 29.55a7 7 0 0 0-.56-.38l1.028-.594c.06-.035.201-.082.496-.006.3.079.69.271 1.143.61.902.675 1.908 1.823 2.759 3.296.85 1.474 1.342 2.919 1.475 4.038.067.562.039.995-.044 1.294-.08.294-.191.392-.253.427l-1.028.594a7 7 0 0 0-.049-.676c-.17-1.424-.765-3.109-1.711-4.747-.946-1.639-2.107-2.996-3.256-3.856m26.476-.38-1.028-.594c-.061-.036-.202-.083-.496-.006-.3.079-.69.27-1.143.61-.903.675-1.908 1.822-2.76 3.296-.85 1.474-1.34 2.918-1.474 4.038-.067.562-.039.995.043 1.294.081.294.192.392.253.427l1.029.594q.007-.334.049-.677c.17-1.424.765-3.109 1.71-4.747.947-1.638 2.108-2.996 3.257-3.856q.275-.206.56-.38M24 10a8.98 8.98 0 0 1 6.711 3.003 7.003 7.003 0 0 0-13.422 0A8.98 8.98 0 0 1 24 10m.832 18.236a.93.93 0 1 1-1.859 0 .93.93 0 0 1 1.86 0m0 3.718a.93.93 0 1 1-1.859 0 .93.93 0 0 1 1.86 0m.93-.93a.93.93 0 1 0 0-1.859.93.93 0 0 0 0 1.86m-2.789-.93a.93.93 0 1 1-1.859 0 .93.93 0 0 1 1.86 0m.93-11.224c-.71 0-1.297.36-1.74.774-.448.418-.844.977-1.194 1.587a1 1 0 0 0 1.734.996c.301-.524.58-.894.825-1.122.248-.231.369-.235.375-.235s.127.004.375.235c.244.228.523.598.825 1.122a1 1 0 0 0 1.734-.996c-.35-.61-.747-1.17-1.194-1.587-.444-.414-1.03-.773-1.74-.773m4.647 11.225a4.647 4.647 0 1 1-9.295 0 4.647 4.647 0 0 1 9.295 0"
    clip-rule="evenodd"
  />
</svg>
